public/images/icon-email--forest.svg

<svg width="24" height="18" viewBox="0 0 24 18" fill="none" xmlns="http://www.w3.org/2000/svg">
<path d="M0 0H24V3.375L23.3906 3.84375L12.8906 11.7188L12 12.375L11.1094 11.7188L0.609375 3.84375L0 3.375V0ZM0 6.1875L12 15.1875L24 6.1875V18H0V6.1875Z" fill="#375519"/>
</svg>

<svg width="24" height="18" viewBox="0 0 24 18" fill="none" xmlns="http://www.w3.org/2000/svg"><path d="M0 0h24v3.375l-.61.469-10.5 7.875-.89.656-.89-.656L.61 3.844 0 3.375V0Zm0 6.188 12 9 12-9V18H0V6.187Z" fill="#375519"/></svg>
